Esim/img/bg2.svg

<svg width="1340" height="273" viewBox="0 0 1340 273" fill="none" xmlns="http://www.w3.org/2000/svg">
<path d="M42 77.9498C42 76.078 40.6569 74.5607 39 74.5607H30C28.3431 74.5607 27 76.078 27 77.9498V271.13H42V77.9498Z" fill="#C4C4C4" fill-opacity="0.1"/>
<path d="M82 45.1883C82 43.3165 80.6569 41.7992 79 41.7992H70C68.3431 41.7992 67 43.3165 67 45.1883V271.13H82V45.1883Z" fill="#C4C4C4" fill-opacity="0.1"/>
<path d="M107 110.711C107 108.839 105.657 107.322 104 107.322H95C93.3431 107.322 92 108.839 92 110.711V271.13H107V110.711Z" fill="#C4C4C4" fill-opacity="0.03"/>
<path d="M132 77.9498C132 76.078 130.657 74.5607 129 74.5607H120C118.343 74.5607 117 76.078 117 77.9498V271.13H132V77.9498Z" fill="#C4C4C4" fill-opacity="0.07"/>
<path d="M156 64.3933C156 62.5215 154.657 61.0042 153 61.0042H144C142.343 61.0042 141 62.5215 141 64.3933V271.13H156V64.3933Z" fill="#C4C4C4" fill-opacity="0.05"/>
<path d="M181 122.008C181 120.136 179.657 118.619 178 118.619H169C167.343 118.619 166 120.136 166 122.008V271.13H181V122.008Z" fill="#C4C4C4" fill-opacity="0.03"/>
<path d="M206 50.8368C206 48.965 204.657 47.4477 203 47.4477H194C192.343 47.4477 191 48.965 191 50.8368V271.13H206V50.8368Z" fill="#C4C4C4" fill-opacity="0.08"/>
<path d="M231 93.7657C231 91.8939 229.657 90.3766 228 90.3766H219C217.343 90.3766 216 91.8939 216 93.7657V271.13H231V93.7657Z" fill="#C4C4C4" fill-opacity="0.05"/>
<path d="M256 170.586C256 168.714 254.657 167.197 253 167.197H244C242.343 167.197 241 168.714 241 170.586V271.13H256V170.586Z" fill="#C4C4C4" fill-opacity="0.1"/>
<path d="M282 122.008C282 120.136 280.657 118.619 279 118.619H270C268.343 118.619 267 120.136 267 122.008V271.13H282V122.008Z" fill="#C4C4C4" fill-opacity="0.03"/>
<path d="M307 146.862C307 144.99 305.657 143.473 304 143.473H295C293.343 143.473 292 144.99 292 146.862V271.13H307V146.862Z" fill="#C4C4C4" fill-opacity="0.05"/>
<path d="M333 99.4142C333 97.5424 331.657 96.0251 330 96.0251H321C319.343 96.0251 318 97.5424 318 99.4142V271.13H333V99.4142Z" fill="#C4C4C4" fill-opacity="0.08"/>
<path d="M57 3.38912C57 1.51735 55.6569 0 54 0H45C43.3431 0 42 1.51737 42 3.38912V271.13H57V3.38912Z" fill="#C4C4C4" fill-opacity="0.05"/>
<path d="M15 5.64853C15 3.77676 13.6569 2.25941 12 2.25941H3C1.34315 2.25941 0 3.77677 0 5.64853V273.389H15V5.64853Z" fill="#C4C4C4" fill-opacity="0.05"/>
<path d="M388 104C388 102.343 386.657 101 385 101H376C374.343 101 373 102.343 373 104V275H388V104Z" fill="#C4C4C4" fill-opacity="0.1"/>
<path d="M428 75C428 73.3431 426.657 72 425 72H416C414.343 72 413 73.3431 413 75V275H428V75Z" fill="#C4C4C4" fill-opacity="0.1"/>
<path d="M453 133C453 131.343 451.657 130 450 130H441C439.343 130 438 131.343 438 133V275H453V133Z" fill="#C4C4C4" fill-opacity="0.03"/>
<path d="M478 104C478 102.343 476.657 101 475 101H466C464.343 101 463 102.343 463 104V275H478V104Z" fill="#C4C4C4" fill-opacity="0.07"/>
<path d="M502 92C502 90.3431 500.657 89 499 89H490C488.343 89 487 90.3431 487 92V275H502V92Z" fill="#C4C4C4" fill-opacity="0.05"/>
<path d="M527 143C527 141.343 525.657 140 524 140H515C513.343 140 512 141.343 512 143V275H527V143Z" fill="#C4C4C4" fill-opacity="0.03"/>
<path d="M552 80C552 78.3431 550.657 77 549 77H540C538.343 77 537 78.3431 537 80V275H552V80Z" fill="#C4C4C4" fill-opacity="0.08"/>
<path d="M577 118C577 116.343 575.657 115 574 115H565C563.343 115 562 116.343 562 118V275H577V118Z" fill="#C4C4C4" fill-opacity="0.05"/>
<path d="M602 186C602 184.343 600.657 183 599 183H590C588.343 183 587 184.343 587 186V275H602V186Z" fill="#C4C4C4" fill-opacity="0.1"/>
<path d="M628 143C628 141.343 626.657 140 625 140H616C614.343 140 613 141.343 613 143V275H628V143Z" fill="#C4C4C4" fill-opacity="0.03"/>
<path d="M653 165C653 163.343 651.657 162 650 162H641C639.343 162 638 163.343 638 165V275H653V165Z" fill="#C4C4C4" fill-opacity="0.05"/>
<path d="M679 123C679 121.343 677.657 120 676 120H667C665.343 120 664 121.343 664 123V275H679V123Z" fill="#C4C4C4" fill-opacity="0.08"/>
<path d="M403 38C403 36.3431 401.657 35 400 35H391C389.343 35 388 36.3432 388 38V275H403V38Z" fill="#C4C4C4" fill-opacity="0.05"/>
<path d="M361 40C361 38.3431 359.657 37 358 37H349C347.343 37 346 38.3432 346 40V277H361V40Z" fill="#C4C4C4" fill-opacity="0.05"/>
<path d="M1303 98C1303 96.3431 1304.34 95 1306 95H1315C1316.66 95 1318 96.3431 1318 98V269H1303V98Z" fill="#C4C4C4" fill-opacity="0.1"/>
<path d="M1263 69C1263 67.3431 1264.34 66 1266 66H1275C1276.66 66 1278 67.3431 1278 69V269H1263V69Z" fill="#C4C4C4" fill-opacity="0.1"/>
<path d="M1238 127C1238 125.343 1239.34 124 1241 124H1250C1251.66 124 1253 125.343 1253 127V269H1238V127Z" fill="#C4C4C4" fill-opacity="0.03"/>
<path d="M1213 98C1213 96.3431 1214.34 95 1216 95H1225C1226.66 95 1228 96.3431 1228 98V269H1213V98Z" fill="#C4C4C4" fill-opacity="0.07"/>
<path d="M1189 86C1189 84.3431 1190.34 83 1192 83H1201C1202.66 83 1204 84.3431 1204 86V269H1189V86Z" fill="#C4C4C4" fill-opacity="0.05"/>
<path d="M1164 137C1164 135.343 1165.34 134 1167 134H1176C1177.66 134 1179 135.343 1179 137V269H1164V137Z" fill="#C4C4C4" fill-opacity="0.03"/>
<path d="M1139 74C1139 72.3431 1140.34 71 1142 71H1151C1152.66 71 1154 72.3431 1154 74V269H1139V74Z" fill="#C4C4C4" fill-opacity="0.08"/>
<path d="M1114 112C1114 110.343 1115.34 109 1117 109H1126C1127.66 109 1129 110.343 1129 112V269H1114V112Z" fill="#C4C4C4" fill-opacity="0.05"/>
<path d="M1089 180C1089 178.343 1090.34 177 1092 177H1101C1102.66 177 1104 178.343 1104 180V269H1089V180Z" fill="#C4C4C4" fill-opacity="0.1"/>
<path d="M1063 137C1063 135.343 1064.34 134 1066 134H1075C1076.66 134 1078 135.343 1078 137V269H1063V137Z" fill="#C4C4C4" fill-opacity="0.03"/>
<path d="M1038 159C1038 157.343 1039.34 156 1041 156H1050C1051.66 156 1053 157.343 1053 159V269H1038V159Z" fill="#C4C4C4" fill-opacity="0.05"/>
<path d="M1288 32C1288 30.3431 1289.34 29 1291 29H1300C1301.66 29 1303 30.3432 1303 32V269H1288V32Z" fill="#C4C4C4" fill-opacity="0.05"/>
<path d="M1330 34C1330 32.3431 1331.34 31 1333 31H1342C1343.66 31 1345 32.3432 1345 34V271H1330V34Z" fill="#C4C4C4" fill-opacity="0.05"/>
<path d="M734 104C734 102.343 732.657 101 731 101H722C720.343 101 719 102.343 719 104V275H734V104Z" fill="#C4C4C4" fill-opacity="0.1"/>
<path d="M774 75C774 73.3431 772.657 72 771 72H762C760.343 72 759 73.3431 759 75V275H774V75Z" fill="#C4C4C4" fill-opacity="0.1"/>
<path d="M799 133C799 131.343 797.657 130 796 130H787C785.343 130 784 131.343 784 133V275H799V133Z" fill="#C4C4C4" fill-opacity="0.03"/>
<path d="M824 104C824 102.343 822.657 101 821 101H812C810.343 101 809 102.343 809 104V275H824V104Z" fill="#C4C4C4" fill-opacity="0.07"/>
<path d="M848 92C848 90.3431 846.657 89 845 89H836C834.343 89 833 90.3431 833 92V275H848V92Z" fill="#C4C4C4" fill-opacity="0.05"/>
<path d="M873 143C873 141.343 871.657 140 870 140H861C859.343 140 858 141.343 858 143V275H873V143Z" fill="#C4C4C4" fill-opacity="0.03"/>
<path d="M898 80C898 78.3431 896.657 77 895 77H886C884.343 77 883 78.3431 883 80V275H898V80Z" fill="#C4C4C4" fill-opacity="0.08"/>
<path d="M923 118C923 116.343 921.657 115 920 115H911C909.343 115 908 116.343 908 118V275H923V118Z" fill="#C4C4C4" fill-opacity="0.05"/>
<path d="M948 186C948 184.343 946.657 183 945 183H936C934.343 183 933 184.343 933 186V275H948V186Z" fill="#C4C4C4" fill-opacity="0.1"/>
<path d="M974 143C974 141.343 972.657 140 971 140H962C960.343 140 959 141.343 959 143V275H974V143Z" fill="#C4C4C4" fill-opacity="0.03"/>
<path d="M999 165C999 163.343 997.657 162 996 162H987C985.343 162 984 163.343 984 165V275H999V165Z" fill="#C4C4C4" fill-opacity="0.05"/>
<path d="M1025 123C1025 121.343 1023.66 120 1022 120H1013C1011.34 120 1010 121.343 1010 123V275H1025V123Z" fill="#C4C4C4" fill-opacity="0.08"/>
<path d="M749 38C749 36.3431 747.657 35 746 35H737C735.343 35 734 36.3432 734 38V275H749V38Z" fill="#C4C4C4" fill-opacity="0.05"/>
<path d="M707 40C707 38.3431 705.657 37 704 37H695C693.343 37 692 38.3432 692 40V277H707V40Z" fill="#C4C4C4" fill-opacity="0.05"/>
</svg>

<svg width="1340" height="273" fill="none" xmlns="http://www.w3.org/2000/svg"><path d="M42 77.95c0-1.872-1.343-3.39-3-3.39h-9c-1.657 0-3 1.518-3 3.39v193.18h15V77.95zM82 45.188c0-1.872-1.343-3.389-3-3.389h-9c-1.657 0-3 1.517-3 3.39V271.13h15V45.188z" fill="#C4C4C4" fill-opacity=".1"/><path d="M107 110.711c0-1.872-1.343-3.389-3-3.389h-9c-1.657 0-3 1.517-3 3.389V271.13h15V110.711z" fill="#C4C4C4" fill-opacity=".03"/><path d="M132 77.95c0-1.872-1.343-3.39-3-3.39h-9c-1.657 0-3 1.518-3 3.39v193.18h15V77.95z" fill="#C4C4C4" fill-opacity=".07"/><path d="M156 64.393c0-1.871-1.343-3.389-3-3.389h-9c-1.657 0-3 1.518-3 3.39V271.13h15V64.393z" fill="#C4C4C4" fill-opacity=".05"/><path d="M181 122.008c0-1.872-1.343-3.389-3-3.389h-9c-1.657 0-3 1.517-3 3.389V271.13h15V122.008z" fill="#C4C4C4" fill-opacity=".03"/><path d="M206 50.837c0-1.872-1.343-3.39-3-3.39h-9c-1.657 0-3 1.518-3 3.39V271.13h15V50.837z" fill="#C4C4C4" fill-opacity=".08"/><path d="M231 93.766c0-1.872-1.343-3.39-3-3.39h-9c-1.657 0-3 1.518-3 3.39V271.13h15V93.766z" fill="#C4C4C4" fill-opacity=".05"/><path d="M256 170.586c0-1.872-1.343-3.389-3-3.389h-9c-1.657 0-3 1.517-3 3.389V271.13h15V170.586z" fill="#C4C4C4" fill-opacity=".1"/><path d="M282 122.008c0-1.872-1.343-3.389-3-3.389h-9c-1.657 0-3 1.517-3 3.389V271.13h15V122.008z" fill="#C4C4C4" fill-opacity=".03"/><path d="M307 146.862c0-1.872-1.343-3.389-3-3.389h-9c-1.657 0-3 1.517-3 3.389V271.13h15V146.862z" fill="#C4C4C4" fill-opacity=".05"/><path d="M333 99.414c0-1.872-1.343-3.389-3-3.389h-9c-1.657 0-3 1.517-3 3.39V271.13h15V99.414z" fill="#C4C4C4" fill-opacity=".08"/><path d="M57 3.39C57 1.516 55.657 0 54 0h-9c-1.657 0-3 1.517-3 3.39v267.74h15V3.39zM15 5.649c0-1.872-1.343-3.39-3-3.39H3c-1.657 0-3 1.518-3 3.39v267.74h15V5.649z" fill="#C4C4C4" fill-opacity=".05"/><path d="M388 104a3 3 0 00-3-3h-9a3 3 0 00-3 3v171h15V104zM428 75a3 3 0 00-3-3h-9a3 3 0 00-3 3v200h15V75z" fill="#C4C4C4" fill-opacity=".1"/><path d="M453 133a3 3 0 00-3-3h-9a3 3 0 00-3 3v142h15V133z" fill="#C4C4C4" fill-opacity=".03"/><path d="M478 104a3 3 0 00-3-3h-9a3 3 0 00-3 3v171h15V104z" fill="#C4C4C4" fill-opacity=".07"/><path d="M502 92a3 3 0 00-3-3h-9a3 3 0 00-3 3v183h15V92z" fill="#C4C4C4" fill-opacity=".05"/><path d="M527 143a3 3 0 00-3-3h-9a3 3 0 00-3 3v132h15V143z" fill="#C4C4C4" fill-opacity=".03"/><path d="M552 80a3 3 0 00-3-3h-9a3 3 0 00-3 3v195h15V80z" fill="#C4C4C4" fill-opacity=".08"/><path d="M577 118a3 3 0 00-3-3h-9a3 3 0 00-3 3v157h15V118z" fill="#C4C4C4" fill-opacity=".05"/><path d="M602 186a3 3 0 00-3-3h-9a3 3 0 00-3 3v89h15v-89z" fill="#C4C4C4" fill-opacity=".1"/><path d="M628 143a3 3 0 00-3-3h-9a3 3 0 00-3 3v132h15V143z" fill="#C4C4C4" fill-opacity=".03"/><path d="M653 165a3 3 0 00-3-3h-9a3 3 0 00-3 3v110h15V165z" fill="#C4C4C4" fill-opacity=".05"/><path d="M679 123a3 3 0 00-3-3h-9a3 3 0 00-3 3v152h15V123z" fill="#C4C4C4" fill-opacity=".08"/><path d="M403 38a3 3 0 00-3-3h-9a3 3 0 00-3 3v237h15V38zM361 40a3 3 0 00-3-3h-9a3 3 0 00-3 3v237h15V40z" fill="#C4C4C4" fill-opacity=".05"/><path d="M1303 98c0-1.657 1.34-3 3-3h9c1.66 0 3 1.343 3 3v171h-15V98zM1263 69c0-1.657 1.34-3 3-3h9c1.66 0 3 1.343 3 3v200h-15V69z" fill="#C4C4C4" fill-opacity=".1"/><path d="M1238 127c0-1.657 1.34-3 3-3h9c1.66 0 3 1.343 3 3v142h-15V127z" fill="#C4C4C4" fill-opacity=".03"/><path d="M1213 98c0-1.657 1.34-3 3-3h9c1.66 0 3 1.343 3 3v171h-15V98z" fill="#C4C4C4" fill-opacity=".07"/><path d="M1189 86c0-1.657 1.34-3 3-3h9c1.66 0 3 1.343 3 3v183h-15V86z" fill="#C4C4C4" fill-opacity=".05"/><path d="M1164 137c0-1.657 1.34-3 3-3h9c1.66 0 3 1.343 3 3v132h-15V137z" fill="#C4C4C4" fill-opacity=".03"/><path d="M1139 74c0-1.657 1.34-3 3-3h9c1.66 0 3 1.343 3 3v195h-15V74z" fill="#C4C4C4" fill-opacity=".08"/><path d="M1114 112c0-1.657 1.34-3 3-3h9c1.66 0 3 1.343 3 3v157h-15V112z" fill="#C4C4C4" fill-opacity=".05"/><path d="M1089 180c0-1.657 1.34-3 3-3h9c1.66 0 3 1.343 3 3v89h-15v-89z" fill="#C4C4C4" fill-opacity=".1"/><path d="M1063 137c0-1.657 1.34-3 3-3h9c1.66 0 3 1.343 3 3v132h-15V137z" fill="#C4C4C4" fill-opacity=".03"/><path d="M1038 159c0-1.657 1.34-3 3-3h9c1.66 0 3 1.343 3 3v110h-15V159zM1288 32c0-1.657 1.34-3 3-3h9c1.66 0 3 1.343 3 3v237h-15V32zM1330 34c0-1.657 1.34-3 3-3h9c1.66 0 3 1.343 3 3v237h-15V34z" fill="#C4C4C4" fill-opacity=".05"/><path d="M734 104a3 3 0 00-3-3h-9a3 3 0 00-3 3v171h15V104zM774 75a3 3 0 00-3-3h-9a3 3 0 00-3 3v200h15V75z" fill="#C4C4C4" fill-opacity=".1"/><path d="M799 133a3 3 0 00-3-3h-9a3 3 0 00-3 3v142h15V133z" fill="#C4C4C4" fill-opacity=".03"/><path d="M824 104a3 3 0 00-3-3h-9a3 3 0 00-3 3v171h15V104z" fill="#C4C4C4" fill-opacity=".07"/><path d="M848 92a3 3 0 00-3-3h-9a3 3 0 00-3 3v183h15V92z" fill="#C4C4C4" fill-opacity=".05"/><path d="M873 143a3 3 0 00-3-3h-9a3 3 0 00-3 3v132h15V143z" fill="#C4C4C4" fill-opacity=".03"/><path d="M898 80a3 3 0 00-3-3h-9a3 3 0 00-3 3v195h15V80z" fill="#C4C4C4" fill-opacity=".08"/><path d="M923 118a3 3 0 00-3-3h-9a3 3 0 00-3 3v157h15V118z" fill="#C4C4C4" fill-opacity=".05"/><path d="M948 186a3 3 0 00-3-3h-9a3 3 0 00-3 3v89h15v-89z" fill="#C4C4C4" fill-opacity=".1"/><path d="M974 143a3 3 0 00-3-3h-9a3 3 0 00-3 3v132h15V143z" fill="#C4C4C4" fill-opacity=".03"/><path d="M999 165a3 3 0 00-3-3h-9a3 3 0 00-3 3v110h15V165z" fill="#C4C4C4" fill-opacity=".05"/><path d="M1025 123c0-1.657-1.34-3-3-3h-9c-1.66 0-3 1.343-3 3v152h15V123z" fill="#C4C4C4" fill-opacity=".08"/><path d="M749 38a3 3 0 00-3-3h-9a3 3 0 00-3 3v237h15V38zM707 40a3 3 0 00-3-3h-9a3 3 0 00-3 3v237h15V40z" fill="#C4C4C4" fill-opacity=".05"/></svg>
